!!!!SEGMENT: pl-wn--sd-xvi-qu-273--144_gomolka-mikolaj--tobie-panie-pokim-zyw-ja-musze-dziekowac.krn
!!!cenid: 15xx:349
!!!COM: Gomółka, Mikołaj
!!!COM-rismid: pe30013343
!!!CDT: ~1535->1591/04/30
!!!CNT: Polish
!!!GTL: Melodiae na psalterz polski
!!!OTL: CXLIV. Tobie, Panie, pókim żyw, ja muszę dziękować,
!!!PDT: 1580
!!!AGN: Sacred
!!!SMS-siglum: PL-Wn
!!!SMS-shelfmark: SD XVI.Qu.273
!!!SMS-shelfwork: 145 G
!!!NIFC-rismid:
!!!ONB-nifc: Melodiae na psalterz polski
**kern	**text	**kern	**text	**kern	**text	**kern	**text
*part4	*part4	*part3	*part3	*part2	*part2	*part1	*part1
*staff4	*staff4	*staff3	*staff3	*staff2	*staff2	*staff1	*staff1
*clefF4	*	*clefC3	*	*clefC3	*	*clefC1	*
*k[b-]	*	*k[b-]	*	*k[b-]	*	*k[b-]	*
*g:	*	*g:	*	*g:	*	*g:	*
*M4/2	*	*M4/2	*	*M4/2	*	*M4/2	*
*met(C|)	*	*met(C|)	*	*met(C|)	*	*met(C|)	*
=-	=-	=-	=-	=-	=-	=-	=-
1G	To-	1g	To-	1d	To-	1g	To-
2E-X	-bie/	2g	-bie/	2e-X	-bie/	2b-	-bie/
2C	pá-	2g	pá-	2e-	pá-	2cc	pá-
=3-	=3-	=3-	=3-	=3-	=3-	=3-	=3-
2.D/	-nie/	2.f	-nie/	2d	-nie/	2a	-nie/
.	.	.	.	1d	pó-	2dd	pó-
4C	.	4e	.	.	.	.	.
4BB-	pó-	4d	pó-	.	.	2.dd	-ťim
4AA	.	4c	.	.	.	.	.
2GG	-ťim	4B-	-ťim	2.d	-ťim	.	.
.	.	4A	.	.	.	4cc	.
=4-	=4-	=4-	=4-	=4-	=4-	=4-	=4-
2.G	ʒ̇yw/	4G	ʒ̇yw/	.	.	2b-	ʒ̇yw/
.	.	4A	.	4c/	ʒ̇yw/	.	.
.	.	4B-	ia	4B-	ia	4dd	ia
4F	ia	4c	.	4A	.	4cc	.
2E	mu-	2d	mu-	4G	mu-	4b-	mu-
.	.	.	.	4A	.	4a	.
2E	-ʃᴣę	1e-X	-ʃᴣę	2.B-	-ʃᴣę	2g.	-ʃᴣę
=5-	=5-	=5-	=5-	=5-	=5-	=5-	=5-
2E	dʒ́ię-	.	.	.	.	.	.
.	.	.	.	4cJ/	.	4aJ	.
2BB-	.	2d	dʒ́ię-	4dL	dʒ́ię-	1b-	dʒ́ię-
.	.	.	.	4eJ	.	.	.
2F	-ťo-	1c	-ťo-	2.f	-ťo-	.	.
2FF	.	.	.	.	.	2a	-ťo-
.	.	.	.	4e	.	.	.
=6-	=6-	=6-	=6-	=6-	=6-	=6-	=6-
2BB-	-wáć/	2B-	-wáć/	2d	-wáć/	2b-	-wáć/
2B-	Któ-	2f	Któ-	2b-	Któ-	2dd	Któ-
!!LO:PB:g=originL
2B-	-ry	2f	-ry	2.b-	-ry	2dd	-ry
2B-	ťu	2d	ťu	.	.	2dd	ťu
.	.	.	.	4a	ťu	.	.
=7-	=7-	=7-	=7-	=7-	=7-	=7-	=7-
2c	bi-	4e	bi-	4g	bi-	2.cc	bi-
.	.	2f	.	4f	.	.	.
2C	-twie	.	.	2g	-twie	.	.
.	.	4e	-twie	.	.	4b-	-twie
4F	ra-	2.f	ra-	2c/	ra-	2a	ra-
4E	.	.	.	.	.	.	.
4D/	.	.	.	4d	.	2a	.
4C	.	4e	.	4e	.	.	.
=8-	=8-	=8-	=8-	=8-	=8-	=8-	=8-
2BB-	-cӡiʃᴣ	2.d	-cӡiʃᴣ	2.f	-cӡiʃᴣ	2.b-	-cӡiʃᴣ
2FF	ʃprá-	.	.	.	.	.	.
.	.	4c/	ʃprá-	4e	ʃprá-	4a	ʃprá-
4GG	-wo-	2B-	-wo-	1d	-wo-	2g/	-wo-
4AA	.	.	.	.	.	.	.
4BB-	.	2B-	.	.	.	2g/	.
4C	.	.	.	.	.	.	.
=9-	=9-	=9-	=9-	=9-	=9-	=9-	=9-
4D/	-wáć	2A	-wáć	2d	-wáć	2f#X	-wáć
4E\	.	.	.	.	.	.	.
4F	Rę-	4A	Rę-	2d	Rę-	2a	Rę-
4G	.	4B-	.	.	.	.	.
2A	-ce/	2c/	-ce/	2c/	-ce/	2a	-ce/
2B-	y	2d	y	2B-	y	2f#	y
=10-	=10-	=10-	=10-	=10-	=10-	=10-	=10-
1G	ʃer_ce	4B-	ʃer-	2e	ʃer-	4g	ʃer-
.	.	4c	.	.	.	4a	.
.	.	4d\	-ce	4d	-ce	1b-	-ce
.	.	4B-/	.	4e	.	.	.
2F	mo-	4c/	mo-	2.f	mo-	.	.
.	.	4d\	.	.	.	.	.
2FF	.	2c/	.	.	.	2a	mo-
.	.	.	.	4e	.	.	.
=11-	=11-	=11-	=11-	=11-	=11-	=11-	=11-
2BB-	-ie:	2B-	-ie:	2d	-ie:	2b-	-ie:
1F	á	2.A	á	1f	á	1cc	á
.	.	4B-	.	.	.	.	.
2F	mnie	2c/	mnie	2f	mnie	2a	mnie
=12-	=12-	=12-	=12-	=12-	=12-	=12-	=12-
4D	w_bo-	2d	w_bo-	2f	w_bo-	2dd	w_bo-
4E	.	.	.	.	.	.	.
4F	-iu	4A	-iu	2f	-iu	2dd	-iu
4G	.	4B-	.	.	.	.	.
!!LO:PB:g=original
1A	ťrwá-	4c/	ťrwá-	4e	ťrwá-	1cc	ťrwá-
.	.	2d	.	2f	.	.	.
.	.	4c/	.	8eL	.	.	.
.	.	.	.	8fJ	.	.	.
=13-	=13-	=13-	=13-	=13-	=13-	=13-	=13-
2G	-wym	2d	-wym	2g	-wym	2bn	-wym
2C	Jeʃ-	2e	Jeʃ-	2g	Jeʃ-	2cc	Jeʃ-
2.D/	-téś	2.f	-téś	2.d	-téś	2a	-téś
.	.	.	.	.	.	2a	ob-
4C	ob-	4e	ob-	4e	ob-	.	.
=14-	=14-	=14-	=14-	=14-	=14-	=14-	=14-
4BB-	-roń-	1d	-roń-	1f	-roń	1b-	-roń-
4C/	.	.	.	.	.	.	.
4D\	.	.	.	.	.	.	.
4E	.	.	.	.	.	.	.
2F	-cą	2c	-cą	2f	-cą	2a	-(cą)
2BB-	ӡáwʒ̇-	2d	ӡáwʒ̇-	2f	ӡáwʒ̇-	2b-	ӡá(wʒ̇-
=15-	=15-	=15-	=15-	=15-	=15-	=15-	=15-
2E	-dy	2B-	-dy	2e-X	-dy	2g/	-dy)
2C	łá-	4c	łá-	2e-	łá-	1g	łá-
.	.	4B-	.	.	.	.	.
1D	-ʃťá-	4A	.	2.d	-ʃťá-	.	.
.	.	4G	.	.	.	.	.
.	.	2A	-ʃťá-	.	.	2f	-ʃťá-
.	.	.	.	4c/	.	.	.
=16-	=16-	=16-	=16-	=16-	=16-	=16-	=16-
!'ogonek po lewej stronie'	!	!	!	!	!	!'ogonek po lewej stronie'	!
!!LO:N:vis=00
0GG/	-wym.	0G/	-wym.	0Bn/	-wym.	0g/	-wym.
=-	=-	=-	=-	=-	=-	=-	=-
*-	*-	*-	*-	*-	*-	*-	*-
!!!RDF**kern: l = terminal long
!!!system-decoration: s1,s2,s3,s4
!!!ENC:Anna Matuszewska
!!!END:2020-02-24
!!!URL-scan: https://polona.pl/item/melodiae-na-psalterz-polski,Nzk3MTM4ODQ/339 Scan on Polona
!!!IIIF: https://polona.pl/iiif/item/Nzk3MTM4ODQ/manifest.json
